X: 8
T: Farewell To Whiskey
R: polka
M: 2/4
L: 1/8
K: Gmaj
D2 G2 | BAGA | B2 E2 | E4 | D2 G2 | GABc | d2 B2 | B2 d2 |
efge | d2 B2 | cBAG | A2 B2 | D2 G2 | BAGA | B2 G2 | G4||


Tune 1529	Setting 14931

